SVG_Azure_Grouped/Management/Azure Monitor for SAP Solution.svg

<?xml version="1.0" encoding="UTF-8" standalone="no"?>
<!-- Generated by Microsoft Visio, SVG Export Azure Monitor for SAP Solution.svg Page-1 -->

<svg
   xmlns:dc="http://purl.org/dc/elements/1.1/"
   xmlns:cc="http://creativecommons.org/ns#"
   xmlns:rdf="http://www.w3.org/1999/02/22-rdf-syntax-ns#"
   xmlns:svg="http://www.w3.org/2000/svg"
   xmlns="http://www.w3.org/2000/svg"
   xmlns:sodipodi="http://sodipodi.sourceforge.net/DTD/sodipodi-0.dtd"
   xmlns:inkscape="http://www.inkscape.org/namespaces/inkscape"
   width="0.78735888in"
   height="0.63010514in"
   viewBox="0 0 56.689748 45.367698"
   xml:space="preserve"
   class="st7"
   version="1.1"
   id="svg65"
   sodipodi:docname="Azure Monitor for SAP Solution.svg"
   style="font-size:12px;overflow:visible;color-interpolation-filters:sRGB;fill:none;fill-rule:evenodd;stroke-linecap:square;stroke-miterlimit:3"
   inkscape:version="0.92.5 (2060ec1f9f, 2020-04-08)"><metadata
   id="metadata69"><rdf:RDF><cc:Work
       rdf:about=""><dc:format>image/svg+xml</dc:format><dc:type
         rdf:resource="http://purl.org/dc/dcmitype/StillImage" /></cc:Work></rdf:RDF></metadata><sodipodi:namedview
   pagecolor="#ffffff"
   bordercolor="#666666"
   borderopacity="1"
   objecttolerance="10"
   gridtolerance="10"
   guidetolerance="10"
   inkscape:pageopacity="0"
   inkscape:pageshadow="2"
   inkscape:window-width="640"
   inkscape:window-height="480"
   id="namedview67"
   showgrid="false"
   inkscape:zoom="1.5611539"
   inkscape:cx="37.795229"
   inkscape:cy="30.23365"
   inkscape:window-x="0"
   inkscape:window-y="0"
   inkscape:window-maximized="0"
   inkscape:current-layer="svg65" />
	<style
   type="text/css"
   id="style2">
	<![CDATA[
		.st1 {fill:url(#grad0-6);stroke:none;stroke-linecap:butt;stroke-width:34}
		.st2 {fill:#50e6ff;stroke:none;stroke-linecap:butt;stroke-width:34}
		.st3 {fill:url(#grad0-12);stroke:none;stroke-linecap:butt;stroke-width:34}
		.st4 {fill:#9cebff;stroke:none;stroke-linecap:butt;stroke-width:34}
		.st5 {fill:#32bedd;stroke:none;stroke-linecap:butt;stroke-width:34}
		.st6 {fill:#767676;stroke:none;stroke-linecap:butt;stroke-width:34}
		.st7 {fill:none;fill-rule:evenodd;font-size:12px;overflow:visible;stroke-linecap:square;stroke-miterlimit:3}
	]]>
	</style>

	<defs
   id="Patterns_And_Gradients">
		<linearGradient
   id="grad0-6"
   x1="0"
   y1="85.973624"
   x2="47.985251"
   y2="85.973624"
   gradientTransform="scale(1.1814047,0.84645)"
   gradientUnits="userSpaceOnUse">
			<stop
   offset="0"
   stop-color="#0078d4"
   stop-opacity="1"
   id="stop4" />
			<stop
   offset="1"
   stop-color="#5ea0ef"
   stop-opacity="1"
   id="stop6" />
		</linearGradient>
		<linearGradient
   id="grad0-12"
   x1="-0.00097959033"
   y1="122.49732"
   x2="27.391118"
   y2="122.49732"
   gradientTransform="scale(1.3220087,0.7564247)"
   gradientUnits="userSpaceOnUse">
			<stop
   offset="0"
   stop-color="#ffffff"
   stop-opacity="1"
   id="stop9" />
			<stop
   offset="1"
   stop-color="#f2f2f2"
   stop-opacity="1"
   id="stop11" />
		</linearGradient>
	</defs>
	<g
   id="g63"
   transform="translate(-34.000275,-33.996605)">
		<title
   id="title15">Page-1</title>
		<g
   id="group12623-1"
   transform="translate(34,-34.0157)">
			<title
   id="title17">Azure Monitor for SAP Solution.12623</title>
			<g
   id="group12624-2">
				<title
   id="title19">Sheet.12624</title>
				<g
   id="shape12625-3"
   transform="translate(0,-4.76007)">
					<title
   id="title21">Sheet.12625</title>
					<path
   d="M 56.69,100.66 A 12.737,12.8675 -180 0 0 45.64,88.29 16.063,16.2275 -180 0 0 29.1,72.78 16.4693,16.638 -180 0 0 13.35,83.63 15.2,15.3557 -180 0 0 0,98.4 15.4331,15.5911 -180 0 0 15.96,113.38 c 0.48,0 0.95,-0.02 1.41,-0.06 h 25.85 a 2.57953,2.60595 -180 0 0 0.68,-0.11 12.8882,13.0202 -180 0 0 12.79,-12.55 z"
   class="st1"
   id="path23"
   inkscape:connector-curvature="0"
   style="fill:url(#grad0-6);stroke:none;stroke-width:34;stroke-linecap:butt" />
				</g>
				<g
   id="shape12626-7"
   transform="translate(15.8551)">
					<title
   id="title26">Sheet.12626</title>
					<path
   d="m 20.18,88.42 c 12.17,0 19.6,9.15 20.19,21.64 a 3.13071,3.16278 0 0 1 -3.12,3.32 H 3.12 A 3.14961,3.18187 0 0 1 0,110.06 C 0.61,97.57 8.04,88.42 20.18,88.42 Z"
   class="st2"
   id="path28"
   inkscape:connector-curvature="0"
   style="fill:#50e6ff;stroke:none;stroke-width:34;stroke-linecap:butt" />
				</g>
				<g
   id="shape12627-9"
   transform="translate(17.937,-2.11912)">
					<title
   id="title31">Sheet.12627</title>
					<path
   d="M 1.04,113.38 A 1.02047,1.03092 0 0 1 0.29,113.06 1.03622,1.04683 0 0 1 0,112.28 c 0.58,-11.94 8.72,-19.62 18.1,-19.62 9.38,0 17.54,7.68 18.11,19.62 a 1.03622,1.04683 0 0 1 -0.29,0.78 1.02047,1.03092 0 0 1 -0.75,0.32 z"
   class="st3"
   id="path33"
   inkscape:connector-curvature="0"
   style="fill:url(#grad0-12);stroke:none;stroke-width:34;stroke-linecap:butt" />
				</g>
				<g
   id="shape12628-13"
   transform="translate(37.0803,-11.3847)">
					<title
   id="title36">Sheet.12628</title>
					<path
   d="M 8.75,108.51 A 14.6394,14.7893 -180 0 0 0,104.74 v 6.88 a 8.18898,8.27285 0 0 1 4.07,1.76 z"
   class="st4"
   id="path38"
   inkscape:connector-curvature="0"
   style="fill:#9cebff;stroke:none;stroke-width:34;stroke-linecap:butt" />
				</g>
				<g
   id="shape12629-15"
   transform="translate(26.252,-11.3943)">
					<title
   id="title41">Sheet.12629</title>
					<path
   d="m 0,108.52 4.68,4.86 a 8.18898,8.27285 0 0 1 4.07,-1.75 v -6.88 A 14.6394,14.7893 -180 0 0 0,108.52 Z"
   class="st2"
   id="path43"
   inkscape:connector-curvature="0"
   style="fill:#50e6ff;stroke:none;stroke-width:34;stroke-linecap:butt" />
				</g>
				<g
   id="shape12630-17"
   transform="translate(42.6205,-5.64145)">
					<title
   id="title46">Sheet.12630</title>
					<path
   d="m 0,109.16 a 8.67087,8.75968 0 0 1 1.69,4.22 H 8.3 a 15.515,15.6739 -180 0 0 -3.62,-9.09 z"
   class="st4"
   id="path48"
   inkscape:connector-curvature="0"
   style="fill:#9cebff;stroke:none;stroke-width:34;stroke-linecap:butt" />
				</g>
				<g
   id="shape12631-19"
   transform="translate(21.1465,-5.64463)">
					<title
   id="title51">Sheet.12631</title>
					<path
   d="M 8.31,109.16 3.63,104.29 A 15.537,15.6961 -180 0 0 0,113.38 h 6.61 a 8.64567,8.73422 0 0 1 1.7,-4.22 z m 18.76,-1.51 a 1.04252,1.0532 -180 0 0 -1.34,-0.6 l -9.77,3.93 0.76,1.96 9.77,-3.92 a 1.04567,1.05638 -180 0 0 0.58,-1.37 z"
   class="st5"
   id="path53"
   inkscape:connector-curvature="0"
   style="fill:#32bedd;stroke:none;stroke-width:34;stroke-linecap:butt" />
				</g>
				<g
   id="shape12632-21"
   transform="translate(33.1906,-3.74188)">
					<title
   id="title56">Sheet.12632</title>
					<ellipse
   cx="2.84724"
   cy="110.501"
   rx="2.84724"
   ry="2.87641"
   class="st6"
   id="ellipse58"
   style="fill:#767676;stroke:none;stroke-width:34;stroke-linecap:butt" />
				</g>
			</g>
		</g>
	</g>
</svg>

<?xml version="1.0" encoding="UTF-8" standalone="no"?>
<!DOCTYPE svg PUBLIC "-//W3C//DTD SVG 1.1//EN" "http://www.w3.org/Graphics/SVG/1.1/DTD/svg11.dtd">
<!-- Generated by Microsoft Visio, SVG Export Azure Monitor for SAP Solution.svg Page-1 -->
<svg xmlns="http://www.w3.org/2000/svg" xmlns:xlink="http://www.w3.org/1999/xlink" xmlns:ev="http://www.w3.org/2001/xml-events"
		width="1.73185in" height="1.57469in" viewBox="0 0 124.693 113.378" xml:space="preserve" color-interpolation-filters="sRGB"
		class="st7">
	<style type="text/css">
	<![CDATA[
		.st1 {fill:url(#grad0-6);stroke:none;stroke-linecap:butt;stroke-width:34}
		.st2 {fill:#50e6ff;stroke:none;stroke-linecap:butt;stroke-width:34}
		.st3 {fill:url(#grad0-12);stroke:none;stroke-linecap:butt;stroke-width:34}
		.st4 {fill:#9cebff;stroke:none;stroke-linecap:butt;stroke-width:34}
		.st5 {fill:#32bedd;stroke:none;stroke-linecap:butt;stroke-width:34}
		.st6 {fill:#767676;stroke:none;stroke-linecap:butt;stroke-width:34}
		.st7 {fill:none;fill-rule:evenodd;font-size:12px;overflow:visible;stroke-linecap:square;stroke-miterlimit:3}
	]]>
	</style>

	<defs id="Patterns_And_Gradients">
		<linearGradient id="grad0-6" x1="0" y1="0" x2="1" y2="0" gradientTransform="rotate(-90 0.5 0.5)">
			<stop offset="0" stop-color="#0078d4" stop-opacity="1"/>
			<stop offset="1" stop-color="#5ea0ef" stop-opacity="1"/>
		</linearGradient>
		<linearGradient id="grad0-12" x1="0" y1="0" x2="1" y2="0" gradientTransform="rotate(90 0.5 0.5)">
			<stop offset="0" stop-color="#ffffff" stop-opacity="1"/>
			<stop offset="1" stop-color="#f2f2f2" stop-opacity="1"/>
		</linearGradient>
	</defs>
	<g>
		<title>Page-1</title>
		<g id="group12330-1" transform="translate(34,-34.0157)">
			<title>Azure Monitor for SAP Solution.12330</title>
			<g id="group12331-2">
				<title>Sheet.12331</title>
				<g id="shape12332-3" transform="translate(0,-4.76007)">
					<title>Sheet.12332</title>
					<path d="M56.69 100.66 A12.737 12.8675 -180 0 0 45.64 88.29 A16.063 16.2275 -180 0 0 29.1 72.78 A16.4693 16.638
								 -180 0 0 13.35 83.63 A15.2 15.3557 -180 0 0 0 98.4 A15.4331 15.5911 -180 0 0 15.96 113.38 C16.44
								 113.38 16.91 113.36 17.37 113.32 L43.22 113.32 A2.57953 2.60595 -180 0 0 43.9 113.21 A12.8882 13.0202
								 -180 0 0 56.69 100.66 Z" class="st1"/>
				</g>
				<g id="shape12333-7" transform="translate(15.8551,-2.13163E-13)">
					<title>Sheet.12333</title>
					<path d="M20.18 88.42 C32.35 88.42 39.78 97.57 40.37 110.06 A3.13071 3.16278 0 0 1 37.25 113.38 L3.12 113.38
								 A3.14961 3.18187 0 0 1 0 110.06 C0.61 97.57 8.04 88.42 20.18 88.42 Z" class="st2"/>
				</g>
				<g id="shape12334-9" transform="translate(17.937,-2.11912)">
					<title>Sheet.12334</title>
					<path d="M1.04 113.38 A1.02047 1.03092 0 0 1 0.29 113.06 A1.03622 1.04683 0 0 1 0 112.28 C0.58 100.34 8.72 92.66
								 18.1 92.66 C27.48 92.66 35.64 100.34 36.21 112.28 A1.03622 1.04683 0 0 1 35.92 113.06 A1.02047 1.03092
								 0 0 1 35.17 113.38 L1.04 113.38 Z" class="st3"/>
				</g>
				<g id="shape12335-13" transform="translate(37.0803,-11.3847)">
					<title>Sheet.12335</title>
					<path d="M8.75 108.51 A14.6394 14.7893 -180 0 0 0 104.74 L0 111.62 A8.18898 8.27285 0 0 1 4.07 113.38 L8.75 108.51
								 Z" class="st4"/>
				</g>
				<g id="shape12336-15" transform="translate(26.252,-11.3943)">
					<title>Sheet.12336</title>
					<path d="M0 108.52 L4.68 113.38 A8.18898 8.27285 0 0 1 8.75 111.63 L8.75 104.75 A14.6394 14.7893 -180 0 0 0 108.52
								 Z" class="st2"/>
				</g>
				<g id="shape12337-17" transform="translate(42.6205,-5.64145)">
					<title>Sheet.12337</title>
					<path d="M0 109.16 A8.67087 8.75968 0 0 1 1.69 113.38 L8.3 113.38 A15.515 15.6739 -180 0 0 4.68 104.29 L0 109.16
								 Z" class="st4"/>
				</g>
				<g id="shape12338-19" transform="translate(21.1465,-5.64463)">
					<title>Sheet.12338</title>
					<path d="M8.31 109.16 L3.63 104.29 A15.537 15.6961 -180 0 0 0 113.38 L6.61 113.38 A8.64567 8.73422 0 0 1 8.31
								 109.16 ZM27.07 107.65 A1.04252 1.0532 -180 0 0 25.73 107.05 L15.96 110.98 L16.72 112.94 L26.49 109.02
								 A1.04567 1.05638 -180 0 0 27.07 107.65 Z" class="st5"/>
				</g>
				<g id="shape12339-21" transform="translate(33.1906,-3.74188)">
					<title>Sheet.12339</title>
					<ellipse cx="2.84724" cy="110.501" rx="2.84724" ry="2.87641" class="st6"/>
				</g>
			</g>
		</g>
	</g>
</svg>
